Numix-GalliumOS/16/devices/media-optical-audio.svg

<?xml version="1.0" encoding="UTF-8" standalone="no"?>
<svg
   xmlns:dc="http://purl.org/dc/elements/1.1/"
   xmlns:cc="http://creativecommons.org/ns#"
   xmlns:rdf="http://www.w3.org/1999/02/22-rdf-syntax-ns#"
   xmlns:svg="http://www.w3.org/2000/svg"
   xmlns="http://www.w3.org/2000/svg"
   xmlns:sodipodi="http://sodipodi.sourceforge.net/DTD/sodipodi-0.dtd"
   xmlns:inkscape="http://www.inkscape.org/namespaces/inkscape"
   width="16"
   height="16"
   viewBox="0 0 16 16"
   id="svg2"
   version="1.1"
   inkscape:version="0.91 r"
   sodipodi:docname="media-optical-audio.svg">
  <metadata
     id="metadata10">
    <rdf:RDF>
      <cc:Work
         rdf:about="">
        <dc:format>image/svg+xml</dc:format>
        <dc:type
           rdf:resource="http://purl.org/dc/dcmitype/StillImage" />
        <dc:title />
      </cc:Work>
    </rdf:RDF>
  </metadata>
  <defs
     id="defs8" />
  <sodipodi:namedview
     pagecolor="#ffffff"
     bordercolor="#666666"
     borderopacity="1"
     objecttolerance="10"
     gridtolerance="10"
     guidetolerance="10"
     inkscape:pageopacity="0"
     inkscape:pageshadow="2"
     inkscape:window-width="1920"
     inkscape:window-height="1056"
     id="namedview6"
     showgrid="false"
     inkscape:zoom="14.75"
     inkscape:cx="-18.881356"
     inkscape:cy="8"
     inkscape:window-x="0"
     inkscape:window-y="24"
     inkscape:window-maximized="1"
     inkscape:current-layer="svg2" />
  <g
     transform="matrix(0.5,0,0,0.5,-4,-506.1811)"
     id="g18"
     style="fill:#eee8d5">
    <path
       inkscape:connector-curvature="0"
       style="fill:#eee8d5"
       d="M 24,8 C 15.163444,8 8,15.163444 8,24 8,32.836556 15.163444,40 24,40 32.836556,40 40,32.836556 40,24 40,15.163444 32.836556,8 24,8 z m 0,11 c 2.755501,0 5,2.2445 5,5 0,2.7555 -2.244499,5 -5,5 -2.755501,0 -5,-2.2445 -5,-5 0,-2.7555 2.244499,-5 5,-5 z m 0,1 c -2.215061,0 -4,1.7849 -4,4 0,2.2151 1.784939,4 4,4 2.215061,0 4,-1.7849 4,-4 0,-2.2151 -1.784939,-4 -4,-4 z m 0,1.5 c 1.380712,0 2.5,1.119288 2.5,2.5 0,1.380712 -1.119288,2.5 -2.5,2.5 -1.380712,0 -2.5,-1.119288 -2.5,-2.5 0,-1.380712 1.119288,-2.5 2.5,-2.5 z"
       transform="translate(0,1004.3622)"
       id="path20" />
  </g>
  <path
     style="opacity:0.4832001;fill:#657b83"
     d="m 7.133952,7.1062305 c 0.194691,-0.188547 0.444999,-0.315356 0.715246,-0.34889 l -0.0972,-0.73459 c -0.431741,0.05355 -0.82606,0.242834 -1.136738,0.544249 l 0.518694,0.539231 z M 6.267904,6.2124805 C 6.655975,5.8393115 7.157182,5.5975375 7.693723,5.5296115 L 6.99775,0.0714745 c -1.7192277,0.219395 -3.3271011,0.98691 -4.5665352,2.187229 l 3.8366892,3.953777 z"
     id="path20-4"
     inkscape:connector-curvature="0"
     inkscape:transform-center-x="2.8597935"
     inkscape:transform-center-y="-4.4111286" />
  <path
     inkscape:connector-curvature="0"
     style="opacity:0.46366781;fill:#fffefb;fill-opacity:1"
     d="M 9.166628,8.433347 C 9.072178,8.687382 8.900938,8.909669 8.671515,9.056374 l 0.404236,0.62102 C 9.442287,9.443047 9.716562,9.102326 9.867049,8.696462 L 9.166631,8.433349 z m 1.166629,0.433366 C 10.143849,9.370676 9.795731,9.804816 9.340821,10.097297 l 2.979853,4.625593 c 1.456914,-0.938765 2.577168,-2.324178 3.17845,-3.941404 L 10.333257,8.866713 z"
     id="path20-4-3"
     inkscape:transform-center-x="-4.0853192"
     inkscape:transform-center-y="3.578137" />
  <path
     style="opacity:0.4832001;fill:#657b83"
     d="M 8.89639,8.863296 C 8.708326,9.058453 8.462546,9.193829 8.193618,9.236674 L 8.316126,9.96747 C 8.745759,9.89905 9.133308,9.696259 9.433393,9.384297 L 8.8964,8.863286 z m 0.896393,0.863313 c -0.37497,0.386332 -0.867516,0.645282 -1.401391,0.731693 l 0.884015,5.430852 c 1.710627,-0.278626 3.291042,-1.101199 4.488292,-2.343597 L 9.792783,9.726608 z"
     id="path20-4-2"
     inkscape:connector-curvature="0"
     inkscape:transform-center-x="-2.9786581"
     inkscape:transform-center-y="4.3762385" />
  <path
     inkscape:connector-curvature="0"
     style="opacity:0.42560556;fill:#fffefb;fill-opacity:1"
     d="m 6.841774,7.5446335 c 0.09924,-0.252203 0.27465,-0.471213 0.506806,-0.613554 L 6.956158,6.3025275 c -0.370901,0.227375 -0.65157,0.562848 -0.809704,0.965794 l 0.695313,0.276323 z M 5.6835479,7.0892875 C 5.8824694,6.5890045 6.238716,6.1615165 6.699075,5.8776895 l -2.8918586,-4.68111 c -1.4744036,0.91105 -2.620653,2.275033 -3.2524074,3.8806 l 5.1287389,2.012109 z"
     id="path20-4-3-7"
     inkscape:transform-center-x="4.0483055"
     inkscape:transform-center-y="-3.6293691" />
  <path
     inkscape:connector-curvature="0"
     style="fill:#4d4d4d;fill-opacity:1;stroke:none"
     d="m 8,5.0000015 c -1.656854,0 -3,1.343146 -3,3.0000005 0,1.656854 1.343146,3 3,3 1.656854,0 3,-1.343146 3,-3 C 11,6.3431475 9.656854,5.0000015 8,5.0000015 z m 0,1 c 1.104569,0 2,0.895431 2,2.0000005 0,1.104569 -0.895431,2 -2,2 -1.104569,0 -2,-0.895431 -2,-2 C 6,6.8954325 6.895431,6.0000015 8,6.0000015 z"
     id="path3008" />
  <path
     inkscape:connector-curvature="0"
     style="color:#000000;line-height:normal;fill:#d33682"
     d="m 10.049245,1.0252329 c 0.357983,-0.05615 0.743618,-0.022695 1.086476,0.141931 1.371494,0.6586281 2.541166,0.1483513 2.541166,0.1483513 0,0 -0.921154,2.2295729 -2.543418,2.1657039 C 9.6004294,3.4222743 9.3720956,3.842758 9.3287831,3.8936403 L 10.258853,10.35131 c 0.0067,0.04392 0.01551,0.08347 0.0198,0.126912 0.145037,1.391747 -0.8256946,2.960953 -2.3833547,3.856567 C 5.9192727,15.471156 3.5881684,15.116568 2.6830727,13.538672 1.7780278,11.961065 2.6373941,9.7455398 4.6134101,8.6090773 6.1429632,7.7296842 7.8860472,7.7602429 9.0162908,8.5440497 L 8.010243,2.0982561 7.976888,2.0509405 c 0,0 0.995911,-0.8736479 2.072296,-1.0262483 z"
     id="path22" />
</svg>

<svg xmlns="http://www.w3.org/2000/svg" viewBox="0 0 16 16">
 <g transform="matrix(0.5,0,0,0.5,-4,-506.1811)" style="fill:#eee8d5">
  <path d="m 24 8 c -8.837 0 -16 7.163 -16 16 0 8.837 7.163 16 16 16 8.837 0 16 -7.163 16 -16 0 -8.837 -7.163 -16 -16 -16 z m 0 11 c 2.756 0 5 2.244 5 5 0 2.756 -2.244 5 -5 5 -2.756 0 -5 -2.244 -5 -5 0 -2.756 2.244 -5 5 -5 z m 0 1 c -2.215 0 -4 1.785 -4 4 0 2.215 1.785 4 4 4 2.215 0 4 -1.785 4 -4 0 -2.215 -1.785 -4 -4 -4 z m 0 1.5 c 1.381 0 2.5 1.119 2.5 2.5 0 1.381 -1.119 2.5 -2.5 2.5 -1.381 0 -2.5 -1.119 -2.5 -2.5 0 -1.381 1.119 -2.5 2.5 -2.5 z" transform="translate(0,1004.3622)"/>
 </g>
 <path d="m 7.134 7.106 c 0.195 -0.189 0.445 -0.315 0.715 -0.349 l -0.097 -0.735 c -0.432 0.054 -0.826 0.243 -1.137 0.544 l 0.519 0.539 z m -0.866 -0.894 c 0.388 -0.373 0.889 -0.615 1.426 -0.683 l -0.696 -5.458 c -1.719 0.219 -3.327 0.987 -4.567 2.187 l 3.837 3.954 z" style="fill:#657b83;opacity:0.483"/>
 <path d="m 9.167 8.433 c -0.094 0.254 -0.266 0.476 -0.495 0.623 l 0.404 0.621 c 0.367 -0.234 0.641 -0.575 0.791 -0.981 l -0.7 -0.263 z m 1.167 0.433 c -0.189 0.504 -0.538 0.938 -0.992 1.231 l 2.98 4.626 c 1.457 -0.939 2.577 -2.324 3.178 -3.941 l -5.166 -1.915 z" style="fill:#fffefb;opacity:0.464;fill-opacity:1"/>
 <path d="m 8.896 8.863 c -0.188 0.195 -0.434 0.331 -0.703 0.373 l 0.123 0.731 c 0.43 -0.068 0.817 -0.271 1.117 -0.583 l -0.537 -0.521 z m 0.896 0.863 c -0.375 0.386 -0.868 0.645 -1.401 0.732 l 0.884 5.431 c 1.711 -0.279 3.291 -1.101 4.488 -2.344 l -3.971 -3.819 z" style="fill:#657b83;opacity:0.483"/>
 <path d="m 6.842 7.545 c 0.099 -0.252 0.275 -0.471 0.507 -0.614 l -0.392 -0.629 c -0.371 0.227 -0.652 0.563 -0.81 0.966 l 0.695 0.276 z m -1.158 -0.455 c 0.199 -0.5 0.555 -0.928 1.016 -1.212 l -2.892 -4.681 c -1.474 0.911 -2.621 2.275 -3.252 3.881 l 5.129 2.01 z" style="fill:#fffefb;opacity:0.426;fill-opacity:1"/>
 <path d="m 8 5 c -1.657 0 -3 1.343 -3 3 0 1.657 1.343 3 3 3 1.657 0 3 -1.343 3 -3 c 0 -1.657 -1.343 -3 -3 -3 z m 0 1 c 1.105 0 2 0.895 2 2 0 1.105 -0.895 2 -2 2 -1.105 0 -2 -0.895 -2 -2 c 0 -1.105 0.895 -2 2 -2 z" style="fill:#4d4d4d;fill-opacity:1;stroke:none"/>
 <path d="m 10.05 1.025 c 0.358 -0.056 0.744 -0.023 1.086 0.142 1.371 0.659 2.541 0.148 2.541 0.148 0 0 -0.921 2.23 -2.543 2.166 c -1.533 -0.059 -1.761 0.362 -1.805 0.412 l 0.93 6.458 c 0.007 0.044 0.016 0.083 0.02 0.127 0.145 1.392 -0.826 2.961 -2.383 3.857 c -1.976 1.136 -4.307 0.782 -5.212 -0.796 -0.905 -1.578 -0.046 -3.793 1.93 -4.93 1.53 -0.879 3.273 -0.849 4.403 -0.065 l -1.01 -6.446 -0.033 -0.047 c 0 0 0.996 -0.874 2.072 -1.026 z" style="fill:#d33682;color:#000"/>
</svg>
